X:131
M:4/4
L:1/4
K:C
A A G A | B A (G ^F | !fermata!E) G A B | A ^G !fermata!A d | A/B/ c (B A) | !fermata!B A A A | B A (G ^F) | !fermata!E !sintro!G A B | (A ^G) !fermata!A2 !eintro!|]
